packages/dnb-ui-lib/assets/icons/dismiss_keyboard_medium.svg

<svg width="24" height="24" viewBox="0 0 24 24" fill="none" xmlns="http://www.w3.org/2000/svg">
<path d="M12 22L11.5641 22.6103C11.8248 22.7966 12.1752 22.7966 12.4359 22.6103L12 22ZM15.4359 20.4674C15.773 20.2267 15.8511 19.7583 15.6103 19.4212C15.3695 19.0842 14.9011 19.0061 14.5641 19.2468L15.4359 20.4674ZM9.43593 19.2468C9.09887 19.0061 8.63046 19.0842 8.3897 19.4212C8.14894 19.7583 8.22701 20.2267 8.56407 20.4674L9.43593 19.2468ZM7 13.25C6.58579 13.25 6.25 13.5858 6.25 14C6.25 14.4142 6.58579 14.75 7 14.75V13.25ZM16.5 14.75C16.9142 14.75 17.25 14.4142 17.25 14C17.25 13.5858 16.9142 13.25 16.5 13.25V14.75ZM12.4359 22.6103L15.4359 20.4674L14.5641 19.2468L11.5641 21.3897L12.4359 22.6103ZM8.56407 20.4674L11.5641 22.6103L12.4359 21.3897L9.43593 19.2468L8.56407 20.4674ZM2 3.75H22V2.25H2V3.75ZM22.25 4V16H23.75V4H22.25ZM22 16.25H2V17.75H22V16.25ZM1.75 16V4H0.25V16H1.75ZM2 16.25C1.86193 16.25 1.75 16.1381 1.75 16H0.25C0.25 16.9665 1.0335 17.75 2 17.75V16.25ZM22.25 16C22.25 16.1381 22.1381 16.25 22 16.25V17.75C22.9665 17.75 23.75 16.9665 23.75 16H22.25ZM22 3.75C22.1381 3.75 22.25 3.86193 22.25 4H23.75C23.75 3.0335 22.9665 2.25 22 2.25V3.75ZM2 2.25C1.0335 2.25 0.25 3.0335 0.25 4H1.75C1.75 3.86193 1.86193 3.75 2 3.75V2.25ZM7 14.75H16.5V13.25H7V14.75Z" fill="black"/>
<path d="M5 6.5C5 7.05228 4.55228 7.5 4 7.5C3.44772 7.5 3 7.05228 3 6.5C3 5.94772 3.44772 5.5 4 5.5C4.55228 5.5 5 5.94772 5 6.5Z" fill="black"/>
<path d="M13 6.5C13 7.05228 12.5523 7.5 12 7.5C11.4477 7.5 11 7.05228 11 6.5C11 5.94772 11.4477 5.5 12 5.5C12.5523 5.5 13 5.94772 13 6.5Z" fill="black"/>
<path d="M9 6.5C9 7.05228 8.55228 7.5 8 7.5C7.44772 7.5 7 7.05228 7 6.5C7 5.94772 7.44772 5.5 8 5.5C8.55228 5.5 9 5.94772 9 6.5Z" fill="black"/>
<path d="M17 6.5C17 7.05228 16.5523 7.5 16 7.5C15.4477 7.5 15 7.05228 15 6.5C15 5.94772 15.4477 5.5 16 5.5C16.5523 5.5 17 5.94772 17 6.5Z" fill="black"/>
<path d="M21 6.5C21 7.05228 20.5523 7.5 20 7.5C19.4477 7.5 19 7.05228 19 6.5C19 5.94772 19.4477 5.5 20 5.5C20.5523 5.5 21 5.94772 21 6.5Z" fill="black"/>
<path d="M7 9.5C7 10.0523 6.55228 10.5 6 10.5C5.44772 10.5 5 10.0523 5 9.5C5 8.94772 5.44772 8.5 6 8.5C6.55228 8.5 7 8.94772 7 9.5Z" fill="black"/>
<path d="M15 9.5C15 10.0523 14.5523 10.5 14 10.5C13.4477 10.5 13 10.0523 13 9.5C13 8.94772 13.4477 8.5 14 8.5C14.5523 8.5 15 8.94772 15 9.5Z" fill="black"/>
<path d="M11 9.5C11 10.0523 10.5523 10.5 10 10.5C9.44772 10.5 9 10.0523 9 9.5C9 8.94772 9.44772 8.5 10 8.5C10.5523 8.5 11 8.94772 11 9.5Z" fill="black"/>
<path d="M19 9.5C19 10.0523 18.5523 10.5 18 10.5C17.4477 10.5 17 10.0523 17 9.5C17 8.94772 17.4477 8.5 18 8.5C18.5523 8.5 19 8.94772 19 9.5Z" fill="black"/>
</svg>

<svg width="24" height="24" viewBox="0 0 24 24" fill="none" xmlns="http://www.w3.org/2000/svg"><path d="M12 22l-.436.61a.75.75 0 00.872 0L12 22zm3.436-1.533a.75.75 0 10-.872-1.22l.872 1.22zm-6-1.22a.75.75 0 00-.872 1.22l.872-1.22zM7 13.25a.75.75 0 000 1.5v-1.5zm9.5 1.5a.75.75 0 000-1.5v1.5zm-4.064 7.86l3-2.143-.872-1.22-3 2.143.872 1.22zm-3.872-2.143l3 2.143.872-1.22-3-2.143-.872 1.22zM2 3.75h20v-1.5H2v1.5zM22.25 4v12h1.5V4h-1.5zM22 16.25H2v1.5h20v-1.5zM1.75 16V4H.25v12h1.5zm.25.25a.25.25 0 01-.25-.25H.25c0 .966.784 1.75 1.75 1.75v-1.5zM22.25 16a.25.25 0 01-.25.25v1.5A1.75 1.75 0 0023.75 16h-1.5zM22 3.75a.25.25 0 01.25.25h1.5A1.75 1.75 0 0022 2.25v1.5zM2 2.25A1.75 1.75 0 00.25 4h1.5A.25.25 0 012 3.75v-1.5zm5 12.5h9.5v-1.5H7v1.5zM5 6.5a1 1 0 11-2 0 1 1 0 012 0zM13 6.5a1 1 0 11-2 0 1 1 0 012 0zM9 6.5a1 1 0 11-2 0 1 1 0 012 0zM17 6.5a1 1 0 11-2 0 1 1 0 012 0zM21 6.5a1 1 0 11-2 0 1 1 0 012 0zM7 9.5a1 1 0 11-2 0 1 1 0 012 0zM15 9.5a1 1 0 11-2 0 1 1 0 012 0zM11 9.5a1 1 0 11-2 0 1 1 0 012 0zM19 9.5a1 1 0 11-2 0 1 1 0 012 0z" fill="#000"/></svg>
